svg/color/bsv.svg

<svg width="64" height="65" viewBox="0 0 64 65" fill="none" xmlns="http://www.w3.org/2000/svg">
<rect y="0.303711" width="64" height="64" rx="32" fill="#EAB300"/>
<rect x="0.5" y="0.803711" width="63" height="63" rx="31.5" stroke="#070B14" stroke-opacity="0.15"/>
<path d="M44.5841 24.466C44.1719 20.1803 40.4726 18.7441 35.7978 18.3345V12.3874H32.1804V18.1758C31.2306 18.1758 30.2578 18.1937 29.2926 18.2142V12.3874H25.6752L25.6726 18.3294C24.8892 18.3447 24.1187 18.3601 23.3685 18.3601V18.3422L18.3789 18.3396V22.2054C18.3789 22.2054 21.0516 22.1542 21.0056 22.2028C22.4725 22.2028 22.9487 23.0528 23.0869 23.7875V30.5616C23.1893 30.5616 23.3199 30.5667 23.4684 30.5872H23.0869L23.0844 40.0775C23.0204 40.5383 22.749 41.273 21.725 41.2756C21.771 41.3165 19.0957 41.2756 19.0957 41.2756L18.3763 45.597H23.0869C23.9625 45.597 24.8252 45.6124 25.6701 45.6175L25.6726 51.6312H29.2875V45.6815C30.2783 45.702 31.2383 45.7097 32.1779 45.7097L32.1753 51.6312H35.7927V45.6303C41.8755 45.2821 46.1381 43.7486 46.6655 38.0345C47.093 33.434 44.9297 31.3782 41.4761 30.5488C43.578 29.4838 44.8913 27.6021 44.5841 24.466ZM39.5202 37.3228C39.5202 41.8158 31.8271 41.3063 29.372 41.3063V33.3367C31.8271 33.3418 39.5202 32.6378 39.5202 37.3228ZM37.8357 26.0814C37.8357 30.1699 31.4149 29.6911 29.372 29.6937V22.4691C31.4175 22.4691 37.8382 21.8188 37.8357 26.0814Z" fill="white"/>
</svg>

<svg xmlns="http://www.w3.org/2000/svg" width="64" height="65" fill="none" viewBox="0 0 64 65"><rect width="64" height="64" y=".304" fill="#EAB300" rx="32"/><rect width="63" height="63" x=".5" y=".804" stroke="#070B14" stroke-opacity=".15" rx="31.5"/><path fill="#fff" d="M44.584 24.466c-.412-4.286-4.111-5.722-8.786-6.132v-5.947H32.18v5.789c-.95 0-1.922.018-2.887.038v-5.827h-3.618l-.002 5.942c-.784.016-1.554.031-2.304.031v-.018l-4.99-.002v3.865s2.673-.05 2.627-.002c1.467 0 1.943.85 2.08 1.585v6.774c.103 0 .234.005.382.025h-.381l-.003 9.49c-.064.461-.335 1.196-1.359 1.199.046.04-2.63 0-2.63 0l-.719 4.321h4.71c.877 0 1.74.015 2.584.02l.003 6.014h3.615v-5.95c.99.021 1.95.029 2.89.029l-.003 5.921h3.618v-6c6.083-.349 10.345-1.882 10.873-7.596.427-4.601-1.736-6.657-5.19-7.486 2.102-1.065 3.415-2.947 3.108-6.083M39.52 37.323c0 4.493-7.693 3.983-10.148 3.983v-7.97c2.455.006 10.148-.698 10.148 3.987M37.836 26.08c0 4.089-6.421 3.61-8.464 3.613v-7.225c2.046 0 8.466-.65 8.464 3.612"/></svg>
